X:20001
T:Twelve Days of Christmas, The
R:March
C:Trad.
O:England
Z:Paul Hardy's Xmas Tunebook 2019 (see www.paulhardy.net). Creative Commons cc by-nc-sa licenced.
M:2/2
L:1/8
Q:1/4=120
K:G
DD|"G"D2 GG G2 GG|"D7"ABcA "G"B3 z||
[M:3/4]]"D7"d2 AB "Am7"cA|"D7"d2 AB "Am7"cA|"D7"d2 AB "Am7"cA|"D7"d2 AB "Am7"cA|"D7"d2 AB "Am7"cA|"D7"d2 AB "Am7"cA|"D7"d2 AB "Am7"cA|
[M:2/2]]"D"d4 "A7"e ^c3|"D"d6z2|[M:3/4]"G"dcBA G2 |"C"c2 E2 G2 |[M:2/2]"D"AGFE D2 Bc |"G"d2 "C"ec "G"BG "D7"A2 |"G"G4|]
W:On the twelfth day of Christmas,
W:my true love sent to me
W:Twelve drummers drumming
W:eleven pipers piping
W:ten lords a' leaping
W:nine ladies dancing
W:eight maids a' milking
W:
W:seven swans a' swimming
W:six geese a' laying
W:five gold rings
W:four colly-birds
W:three French hens
W:two turtle doves
W:and a partridge in a pear tree
% --------------------------------- U ---------------------------------------
% --------------------------------- V ---------------------------------------
% --------------------------------- W ---------------------------------------

